images/ic-leadership-and-strategy.svg

<svg height="20" viewBox="0 0 20 20" width="20" xmlns="http://www.w3.org/2000/svg"><g fill="none" transform="translate(-1)"><circle cx="8.5" cy="8" fill="#e0be41" r="1"/><path d="m10.5 15.21c0-1.88 2.98-2.7 4.5-2.7.88 0 2.24.27 3.24.87.48-1.02.75-2.16.75-3.37 0-4.41-3.59-8-8-8s-8 3.59-8 8c0 1.23.29 2.39.78 3.43 1.34-.98 3.43-1.43 4.73-1.43.44 0 .97.05 1.53.16-.63.57-1.06 1.22-1.3 1.86-.08 0-.15-.01-.23-.01-1.38 0-2.98.57-3.66 1.11 1.37 1.65 3.39 2.73 5.66 2.86zm4.5-8.21c1.11 0 2 .89 2 2s-.89 2-2 2-2-.89-2-2c-.01-1.11.89-2 2-2zm-6.5 4c-1.65 0-3-1.35-3-3s1.35-3 3-3 3 1.35 3 3-1.35 3-3 3z" fill="#e0be41"/><path d="m11.5 8c0-1.65-1.35-3-3-3s-3 1.35-3 3 1.35 3 3 3 3-1.35 3-3zm-3 1c-.55 0-1-.45-1-1s.45-1 1-1 1 .45 1 1-.45 1-1 1zm6.5 2c1.11 0 2-.89 2-2s-.89-2-2-2-2.01.89-2 2c0 1.11.89 2 2 2zm-4.01-10.99c-5.52 0-10 4.48-10 10s4.48 10 10 10 10-4.48 10-10-4.48-10-10-10zm-6.15 15.11c.68-.54 2.27-1.11 3.66-1.11.07 0 .15.01.23.01.24-.64.67-1.29 1.3-1.86-.56-.1-1.09-.16-1.53-.16-1.3 0-3.39.45-4.73 1.43-.5-1.04-.78-2.2-.78-3.43 0-4.41 3.59-8 8-8s8 3.59 8 8c0 1.2-.27 2.34-.75 3.37-1-.59-2.36-.87-3.24-.87-1.52 0-4.5.81-4.5 2.7v2.78c-2.27-.13-4.29-1.21-5.66-2.86z" fill="#3e4241"/></g></svg>

<?xml version="1.0" encoding="UTF-8"?>
<svg width="20px" height="20px" viewBox="0 0 20 20" version="1.1" xmlns="http://www.w3.org/2000/svg" xmlns:xlink="http://www.w3.org/1999/xlink">
    <!-- Generator: Sketch 54.1 (76490) - https://sketchapp.com -->
    <title>ic-leadership-and-strategy</title>
    <desc>Created with Sketch.</desc>
    <g id="Page-1" stroke="none" stroke-width="1" fill="none" fill-rule="evenodd">
        <g id="ic-leadership-and-strategy" transform="translate(-1.000000, 0.000000)" fill-rule="nonzero">
            <circle id="Oval" fill="#E0BE41" cx="8.5" cy="8" r="1"></circle>
            <path d="M10.5,15.21 C10.5,13.33 13.48,12.51 15,12.51 C15.88,12.51 17.24,12.78 18.24,13.38 C18.72,12.36 18.99,11.22 18.99,10.01 C18.99,5.6 15.4,2.01 10.99,2.01 C6.58,2.01 2.99,5.6 2.99,10.01 C2.99,11.24 3.28,12.4 3.77,13.44 C5.11,12.46 7.2,12.01 8.5,12.01 C8.94,12.01 9.47,12.06 10.03,12.17 C9.4,12.74 8.97,13.39 8.73,14.03 C8.65,14.03 8.58,14.02 8.5,14.02 C7.12,14.02 5.52,14.59 4.84,15.13 C6.21,16.78 8.23,17.86 10.5,17.99 L10.5,15.21 L10.5,15.21 Z M15,7 C16.11,7 17,7.89 17,9 C17,10.11 16.11,11 15,11 C13.89,11 13,10.11 13,9 C12.99,7.89 13.89,7 15,7 Z M8.5,11 C6.85,11 5.5,9.65 5.5,8 C5.5,6.35 6.85,5 8.5,5 C10.15,5 11.5,6.35 11.5,8 C11.5,9.65 10.15,11 8.5,11 Z" id="Shape" fill="#E0BE41"></path>
            <path d="M11.5,8 C11.5,6.35 10.15,5 8.5,5 C6.85,5 5.5,6.35 5.5,8 C5.5,9.65 6.85,11 8.5,11 C10.15,11 11.5,9.65 11.5,8 Z M8.5,9 C7.95,9 7.5,8.55 7.5,8 C7.5,7.45 7.95,7 8.5,7 C9.05,7 9.5,7.45 9.5,8 C9.5,8.55 9.05,9 8.5,9 Z M15,11 C16.11,11 17,10.11 17,9 C17,7.89 16.11,7 15,7 C13.89,7 12.99,7.89 13,9 C13,10.11 13.89,11 15,11 Z M10.99,0.01 C5.47,0.01 0.99,4.49 0.99,10.01 C0.99,15.53 5.47,20.01 10.99,20.01 C16.51,20.01 20.99,15.53 20.99,10.01 C20.99,4.49 16.51,0.01 10.99,0.01 Z M4.84,15.12 C5.52,14.58 7.11,14.01 8.5,14.01 C8.57,14.01 8.65,14.02 8.73,14.02 C8.97,13.38 9.4,12.73 10.03,12.16 C9.47,12.06 8.94,12 8.5,12 C7.2,12 5.11,12.45 3.77,13.43 C3.27,12.39 2.99,11.23 2.99,10 C2.99,5.59 6.58,2 10.99,2 C15.4,2 18.99,5.59 18.99,10 C18.99,11.2 18.72,12.34 18.24,13.37 C17.24,12.78 15.88,12.5 15,12.5 C13.48,12.5 10.5,13.31 10.5,15.2 L10.5,17.98 C8.23,17.85 6.21,16.77 4.84,15.12 L4.84,15.12 Z" id="Shape" fill="#3E4241"></path>
        </g>
    </g>
</svg>
